markup/public/images/man.svg

<svg width="22" height="22" viewBox="0 0 22 22" fill="none" xmlns="http://www.w3.org/2000/svg">
<g clip-path="url(#clip0)">
<path d="M12.8972 9.57535C13.8843 8.94912 14.5321 7.82192 14.5321 6.56947C14.5321 4.59687 12.9589 3 11.0154 3C9.07198 3 7.46787 4.59687 7.46787 6.56947C7.46787 7.82192 8.11568 8.94912 9.10283 9.57535C6.82005 9.79452 5 11.7671 5 14.1468V17.8728V17.9354L5.24679 18.0294C7.62211 18.7808 9.68895 19.0313 11.3856 19.0313C14.6864 19.0313 16.6298 18.0607 16.7532 17.998L17 17.8728H17.0308V14.1468C17 11.7671 15.2108 9.79452 12.8972 9.57535Z" fill="#67717D"/>
</g>
<defs>
<clipPath id="clip0">
<rect width="12" height="16" fill="white" transform="translate(5 3)"/>
</clipPath>
</defs>
</svg>

<svg width="22" height="22" viewBox="0 0 22 22" fill="none" xmlns="http://www.w3.org/2000/svg"><g clip-path="url(#a)"><path d="M12.897 9.575a3.564 3.564 0 0 0 1.635-3.006C14.532 4.597 12.96 3 11.015 3 9.072 3 7.468 4.597 7.468 6.57c0 1.252.648 2.38 1.635 3.005C6.82 9.795 5 11.767 5 14.147v3.788l.247.094c2.375.752 4.442 1.002 6.139 1.002 3.3 0 5.244-.97 5.367-1.033l.247-.125h.03v-3.726c-.03-2.38-1.82-4.352-4.133-4.572z" fill="#67717D"/></g><defs><clipPath id="a"><path fill="#fff" transform="translate(5 3)" d="M0 0h12v16H0z"/></clipPath></defs></svg>
